symbols/web/grid_on/materialsymbolsoutlined/grid_on_wght200gradN25_40px.svg

<svg xmlns="http://www.w3.org/2000/svg" height="40" width="40"><path d="M9.208 33.167q-.958 0-1.666-.688-.709-.687-.709-1.687V9.208q0-.958.709-1.666.708-.709 1.666-.709h21.584q.958 0 1.666.709.709.708.709 1.666v21.584q0 1-.709 1.687-.708.688-1.666.688Zm-1-8.334v5.959q0 .375.313.708.312.333.687.333h5.959v-7Zm8.334 0v7H23.5v-7Zm8.291 7h5.959q.375 0 .708-.333.333-.333.333-.708v-5.959h-7ZM8.208 23.5h6.959v-6.958H8.208Zm8.334 0H23.5v-6.958h-6.958Zm8.291 0h7v-6.958h-7ZM15.167 8.208H9.208q-.375 0-.687.313-.313.312-.313.687v5.959h6.959Zm1.375 6.959H23.5V8.208h-6.958Zm8.291 0h7V9.208q0-.375-.333-.687-.333-.313-.708-.313h-5.959Z"/></svg>

<svg xmlns="http://www.w3.org/2000/svg" height="40" width="40"><path d="M30.792 33.167H9.208Q8.25 33.167 7.542 32.479Q6.833 31.792 6.833 30.792V9.208Q6.833 8.25 7.542 7.542Q8.25 6.833 9.208 6.833H30.792Q31.75 6.833 32.458 7.542Q33.167 8.25 33.167 9.208V30.792Q33.167 31.792 32.458 32.479Q31.75 33.167 30.792 33.167ZM15.167 31.833V24.833H8.208V30.792Q8.208 31.167 8.521 31.5Q8.833 31.833 9.208 31.833ZM8.208 23.5H15.167V16.542H8.208ZM8.208 15.167H15.167V8.208H9.208Q8.833 8.208 8.521 8.521Q8.208 8.833 8.208 9.208ZM16.542 31.833H23.5V24.833H16.542ZM16.542 23.5H23.5V16.542H16.542ZM16.542 15.167H23.5V8.208H16.542ZM24.833 31.833H30.792Q31.167 31.833 31.5 31.5Q31.833 31.167 31.833 30.792V24.833H24.833ZM24.833 23.5H31.833V16.542H24.833ZM24.833 15.167H31.833V9.208Q31.833 8.833 31.5 8.521Q31.167 8.208 30.792 8.208H24.833Z"/></svg>
